static/site/images/special-projects/autoclave/svg/2-fill.svg

<svg width="166" height="82" viewBox="0 0 166 82" fill="none" xmlns="http://www.w3.org/2000/svg">
<path d="M0.417375 81.4199L32.8654 52.1399C34.7214 50.4119 36.5134 48.7479 38.2414 47.1479C40.0334 45.5479 41.5374 43.9159 42.7534 42.2519C44.0334 40.5239 44.8014 38.6679 45.0574 36.6839C45.2494 35.0199 44.9294 33.6119 44.0974 32.4599C43.3294 31.2439 41.8894 30.6039 39.7774 30.5399C38.1134 30.4759 36.6094 30.9239 35.2654 31.8839C33.9854 32.8439 32.9294 34.0599 32.0974 35.5319C31.2654 37.0039 30.6894 38.5399 30.3694 40.1399H10.0174C10.8494 35.2119 12.6414 30.6679 15.3934 26.5079C18.2094 22.3479 21.8574 19.0199 26.3374 16.5239C30.8814 13.9639 36.1934 12.6839 42.2734 12.6839C47.3294 12.6839 51.8094 13.7079 55.7134 15.7559C59.6174 17.8039 62.5614 20.5559 64.5454 24.0119C66.5934 27.4039 67.2974 31.1799 66.6574 35.3399C66.2094 39.0519 64.8014 42.3479 62.4334 45.2279C60.1294 48.1079 57.4414 50.6679 54.3694 52.9079L41.3134 62.2199H64.9294L61.8574 81.4199H0.417375Z" fill="#0073FF"/>
<path d="M83.1844 72.4825C83.0724 73.1865 83.2004 73.7705 83.5684 74.2345C83.9524 74.6985 84.5044 74.9465 85.2244 74.9785C85.8484 74.9945 86.4484 74.8585 87.0244 74.5705C87.6004 74.2825 88.1044 73.9145 88.5364 73.4665L88.0324 77.3545C87.5844 77.6105 87.0804 77.8185 86.5204 77.9785C85.9764 78.1385 85.3444 78.2185 84.6244 78.2185C83.4404 78.2185 82.3924 77.9785 81.4804 77.4985C80.5684 77.0025 79.8804 76.3225 79.4164 75.4585C78.9524 74.5945 78.8004 73.5945 78.9604 72.4585C79.1204 71.2905 79.5444 70.2745 80.2324 69.4105C80.9204 68.5465 81.7764 67.8825 82.8004 67.4185C83.8404 66.9385 84.9684 66.6985 86.1844 66.6985C86.9044 66.6985 87.5364 66.7785 88.0804 66.9385C88.6244 67.0985 89.1204 67.2985 89.5684 67.5385L89.0404 71.4265C88.7524 70.9305 88.3684 70.5545 87.8884 70.2985C87.4244 70.0425 86.9284 69.9145 86.4004 69.9145C85.9044 69.9145 85.4244 70.0345 84.9604 70.2745C84.5124 70.4985 84.1284 70.8105 83.8084 71.2105C83.4884 71.5945 83.2804 72.0185 83.1844 72.4825ZM103.332 66.9385L101.436 77.9785H97.4517L98.7477 70.4905H95.3637L94.0677 77.9785H90.0837L92.0037 66.9385H103.332ZM104.25 72.4585C104.41 71.3065 104.826 70.2985 105.498 69.4345C106.186 68.5705 107.042 67.8985 108.066 67.4185C109.09 66.9385 110.202 66.6985 111.402 66.6985C112.57 66.6985 113.594 66.9465 114.474 67.4425C115.37 67.9225 116.042 68.5945 116.49 69.4585C116.954 70.3225 117.106 71.3225 116.946 72.4585C116.786 73.6105 116.37 74.6185 115.698 75.4825C115.026 76.3465 114.178 77.0185 113.154 77.4985C112.13 77.9785 111.018 78.2185 109.818 78.2185C108.65 78.2185 107.618 77.9785 106.722 77.4985C105.826 77.0025 105.146 76.3225 104.682 75.4585C104.234 74.5945 104.09 73.5945 104.25 72.4585ZM108.474 72.4825C108.378 73.0905 108.466 73.6345 108.738 74.1145C109.01 74.5785 109.45 74.8265 110.058 74.8585C110.698 74.8745 111.274 74.6425 111.786 74.1625C112.314 73.6825 112.634 73.1065 112.746 72.4345C112.842 71.8265 112.754 71.2825 112.482 70.8025C112.21 70.3225 111.77 70.0745 111.162 70.0585C110.522 70.0265 109.946 70.2585 109.434 70.7545C108.922 71.2345 108.602 71.8105 108.474 72.4825ZM122.466 72.4825C122.354 73.1865 122.482 73.7705 122.85 74.2345C123.234 74.6985 123.786 74.9465 124.506 74.9785C125.13 74.9945 125.73 74.8585 126.306 74.5705C126.882 74.2825 127.386 73.9145 127.818 73.4665L127.314 77.3545C126.866 77.6105 126.362 77.8185 125.802 77.9785C125.258 78.1385 124.626 78.2185 123.906 78.2185C122.722 78.2185 121.674 77.9785 120.762 77.4985C119.85 77.0025 119.162 76.3225 118.698 75.4585C118.234 74.5945 118.082 73.5945 118.242 72.4585C118.402 71.2905 118.826 70.2745 119.514 69.4105C120.202 68.5465 121.058 67.8825 122.082 67.4185C123.122 66.9385 124.25 66.6985 125.466 66.6985C126.186 66.6985 126.818 66.7785 127.362 66.9385C127.906 67.0985 128.402 67.2985 128.85 67.5385L128.322 71.4265C128.034 70.9305 127.65 70.5545 127.17 70.2985C126.706 70.0425 126.21 69.9145 125.682 69.9145C125.186 69.9145 124.706 70.0345 124.242 70.2745C123.794 70.4985 123.41 70.8105 123.09 71.2105C122.77 71.5945 122.562 72.0185 122.466 72.4825ZM129.797 72.4585C129.957 71.3065 130.373 70.2985 131.045 69.4345C131.733 68.5705 132.589 67.8985 133.613 67.4185C134.637 66.9385 135.749 66.6985 136.949 66.6985C138.117 66.6985 139.141 66.9465 140.021 67.4425C140.917 67.9225 141.589 68.5945 142.037 69.4585C142.501 70.3225 142.653 71.3225 142.493 72.4585C142.333 73.6105 141.917 74.6185 141.245 75.4825C140.573 76.3465 139.725 77.0185 138.701 77.4985C137.677 77.9785 136.565 78.2185 135.365 78.2185C134.197 78.2185 133.165 77.9785 132.269 77.4985C131.373 77.0025 130.693 76.3225 130.229 75.4585C129.781 74.5945 129.637 73.5945 129.797 72.4585ZM134.021 72.4825C133.925 73.0905 134.013 73.6345 134.285 74.1145C134.557 74.5785 134.997 74.8265 135.605 74.8585C136.245 74.8745 136.821 74.6425 137.333 74.1625C137.861 73.6825 138.181 73.1065 138.293 72.4345C138.389 71.8265 138.301 71.2825 138.029 70.8025C137.757 70.3225 137.317 70.0745 136.709 70.0585C136.069 70.0265 135.493 70.2585 134.981 70.7545C134.469 71.2345 134.149 71.8105 134.021 72.4825ZM144.197 72.0505C144.197 70.5145 144.421 69.0985 144.869 67.8025C145.333 66.4905 145.997 65.3465 146.861 64.3705C147.741 63.3785 148.805 62.6025 150.053 62.0425C151.013 61.6265 151.821 61.2185 152.477 60.8185C153.133 60.4185 153.637 59.8985 153.989 59.2585L157.997 59.2825C157.661 60.4505 157.013 61.4585 156.053 62.3065C155.093 63.1545 153.973 63.8505 152.693 64.3945C151.637 64.8425 150.717 65.4185 149.933 66.1225C149.165 66.8105 148.621 67.6265 148.301 68.5705C148.749 67.9945 149.277 67.5465 149.885 67.2265C150.509 66.8905 151.229 66.7225 152.045 66.7225C153.181 66.7225 154.149 66.9785 154.949 67.4905C155.765 67.9865 156.365 68.6665 156.749 69.5305C157.149 70.3945 157.277 71.3705 157.133 72.4585C156.989 73.5785 156.597 74.5705 155.957 75.4345C155.317 76.2985 154.493 76.9785 153.485 77.4745C152.477 77.9705 151.349 78.2185 150.101 78.2185C148.741 78.2185 147.621 77.9305 146.741 77.3545C145.877 76.7785 145.237 76.0265 144.821 75.0985C144.405 74.1545 144.197 73.1385 144.197 72.0505ZM148.541 72.9145C148.541 73.4585 148.685 73.9225 148.973 74.3065C149.277 74.6745 149.709 74.8585 150.269 74.8585C150.909 74.8585 151.477 74.6265 151.973 74.1625C152.469 73.6825 152.773 73.1065 152.885 72.4345C153.013 71.7145 152.901 71.1305 152.549 70.6825C152.213 70.2345 151.741 70.0105 151.133 70.0105C150.717 70.0105 150.309 70.1225 149.909 70.3465C149.509 70.5545 149.181 70.8745 148.925 71.3065C148.669 71.7225 148.541 72.2585 148.541 72.9145L148.421 72.8665V72.8905L148.541 72.9145Z" fill="#0073FF"/>
</svg>

<svg width="166" height="82" fill="none" xmlns="http://www.w3.org/2000/svg"><path d="M.417 81.42l32.448-29.28c1.856-1.728 3.648-3.392 5.376-4.992 1.792-1.6 3.296-3.232 4.512-4.896 1.28-1.728 2.048-3.584 2.304-5.568.192-1.664-.128-3.072-.96-4.224-.768-1.216-2.208-1.856-4.32-1.92-1.664-.064-3.168.384-4.512 1.344-1.28.96-2.336 2.176-3.168 3.648a15.494 15.494 0 00-1.728 4.608H10.017a35.002 35.002 0 015.376-13.632c2.816-4.16 6.464-7.488 10.944-9.984 4.544-2.56 9.856-3.84 15.936-3.84 5.056 0 9.536 1.024 13.44 3.072s6.848 4.8 8.832 8.256c2.048 3.392 2.752 7.168 2.112 11.328-.448 3.712-1.856 7.008-4.224 9.888a41.808 41.808 0 01-8.064 7.68L41.313 62.22H64.93l-3.072 19.2H.417zm82.767-8.937c-.112.703.016 1.287.384 1.751.384.465.936.713 1.656.745a3.755 3.755 0 001.8-.409 5.496 5.496 0 001.512-1.103l-.504 3.888a6.802 6.802 0 01-1.512.623c-.544.16-1.176.24-1.896.24-1.184 0-2.232-.24-3.144-.72-.912-.496-1.6-1.175-2.064-2.04-.464-.864-.616-1.864-.456-3 .16-1.168.584-2.183 1.272-3.047a6.843 6.843 0 012.568-1.993c1.04-.48 2.168-.72 3.384-.72.72 0 1.352.08 1.896.24.544.16 1.04.36 1.488.6l-.528 3.889a2.89 2.89 0 00-1.152-1.129 3.033 3.033 0 00-1.488-.383c-.496 0-.976.12-1.44.36a3.42 3.42 0 00-1.152.935c-.32.385-.528.809-.624 1.273zm20.148-5.544l-1.896 11.04h-3.984l1.296-7.489h-3.384l-1.296 7.489h-3.984l1.92-11.04h11.328zm.918 5.52c.16-1.153.576-2.16 1.248-3.025a7.068 7.068 0 012.568-2.016c1.024-.48 2.136-.72 3.336-.72 1.168 0 2.192.249 3.072.745.896.48 1.568 1.151 2.016 2.016.464.864.616 1.864.456 3-.16 1.151-.576 2.16-1.248 3.023a6.856 6.856 0 01-2.544 2.017c-1.024.48-2.136.72-3.336.72-1.168 0-2.2-.24-3.096-.72-.896-.496-1.576-1.176-2.04-2.04-.448-.865-.592-1.865-.432-3zm4.224.023c-.096.609-.008 1.153.264 1.633.272.464.712.712 1.32.744.64.016 1.216-.216 1.728-.697.528-.48.848-1.056.96-1.728.096-.608.008-1.151-.264-1.632-.272-.48-.712-.728-1.32-.744-.64-.032-1.216.2-1.728.696a3.117 3.117 0 00-.96 1.728zm13.992 0c-.112.704.016 1.288.384 1.752.384.465.936.713 1.656.745a3.755 3.755 0 001.8-.409 5.496 5.496 0 001.512-1.103l-.504 3.888a6.802 6.802 0 01-1.512.623c-.544.16-1.176.24-1.896.24-1.184 0-2.232-.24-3.144-.72-.912-.496-1.6-1.175-2.064-2.04-.464-.864-.616-1.864-.456-3 .16-1.168.584-2.183 1.272-3.047a6.843 6.843 0 012.568-1.993c1.04-.48 2.168-.72 3.384-.72.72 0 1.352.08 1.896.24.544.16 1.04.36 1.488.6l-.528 3.889a2.89 2.89 0 00-1.152-1.129 3.033 3.033 0 00-1.488-.383c-.496 0-.976.12-1.44.36a3.42 3.42 0 00-1.152.935c-.32.385-.528.809-.624 1.273zm7.331-.023c.16-1.153.576-2.16 1.248-3.025a7.068 7.068 0 012.568-2.016c1.024-.48 2.136-.72 3.336-.72 1.168 0 2.192.249 3.072.745.896.48 1.568 1.151 2.016 2.016.464.864.616 1.864.456 3-.16 1.151-.576 2.16-1.248 3.023a6.856 6.856 0 01-2.544 2.017c-1.024.48-2.136.72-3.336.72-1.168 0-2.2-.24-3.096-.72-.896-.496-1.576-1.176-2.04-2.04-.448-.865-.592-1.865-.432-3zm4.224.023c-.096.609-.008 1.153.264 1.633.272.464.712.712 1.32.744.64.016 1.216-.216 1.728-.697.528-.48.848-1.056.96-1.728.096-.608.008-1.151-.264-1.632-.272-.48-.712-.728-1.32-.744-.64-.032-1.216.2-1.728.696a3.117 3.117 0 00-.96 1.728zm10.176-.431c0-1.537.224-2.953.672-4.249.464-1.312 1.128-2.456 1.992-3.431a9.3 9.3 0 013.192-2.328c.96-.416 1.768-.825 2.424-1.224.656-.4 1.16-.92 1.512-1.56l4.008.023c-.336 1.169-.984 2.177-1.944 3.025-.96.847-2.08 1.543-3.36 2.087a9.845 9.845 0 00-2.76 1.728 5.701 5.701 0 00-1.632 2.448 4.87 4.87 0 011.584-1.343c.624-.337 1.344-.505 2.16-.505 1.136 0 2.104.257 2.904.769a4.455 4.455 0 011.8 2.04c.4.863.528 1.84.384 2.927-.144 1.12-.536 2.112-1.176 2.977a6.706 6.706 0 01-2.472 2.04c-1.008.496-2.136.744-3.384.744-1.36 0-2.48-.288-3.36-.864a5.245 5.245 0 01-1.92-2.257 7.474 7.474 0 01-.624-3.047zm4.344.864c0 .543.144 1.007.432 1.391.304.368.736.553 1.296.553.64 0 1.208-.233 1.704-.697.496-.48.8-1.056.912-1.728.128-.72.016-1.303-.336-1.751-.336-.449-.808-.673-1.416-.673-.416 0-.824.112-1.224.337-.4.208-.728.528-.984.96-.256.415-.384.951-.384 1.608l-.12-.049v.025l.12.023z" fill="#0073FF"/></svg>
